X: 1
T:Flip McGilder's -- Reel
M:C|
L:1/8
R:reel
B:Ryan's Mammoth Collection
N:284
Z:Contributed by Ray Davies,  ray:davies99.freeserve.co.uk
K:Am
v(3.A.A.A (AG) EFGB | (3.A.A.A AB cded | cBcG EFGB | Aa{b}a^g aAAB |
 (3.A.A.A (AG) EFGB | A^GAB cded | {d}cBcG EFGB | Aa{b}a^g aAAB :|
|:vecgc acgc | BGGA Bcdf | ecgc acgc | aged (cA).Az |
agea gedB | {d}cBcG EFGB | A^GAB cdea | gede cAAB :|
